X:289
T:score87
L:1/16
Q:1/4=96
M:2/2
I:linebreak $
K:C#min
 z (GAG^^FGce dcdc^Bceg) | z (GAG^^FGce dcdc^Bceg) |$ z (Acdfac'd'!8va(! b'a'g'f'e'd'f'c'!8va)! | %3
 ^bd'agfaed fc^BdAG=BA-) |$ AG(AG^^FGce dcdc^Bceg) | z (GAG^^FGce dcdc^Bceg) | %6
 (ded^^cdb^ag ^^fe'd'c'bagf |$ ^agb^^cedg^A ^cBd^^FAGFG) |] %8
